svgs/duotone/vector-square.svg

<svg xmlns="http://www.w3.org/2000/svg" viewBox="0 0 448 512"><!-- Font Awesome Pro 6.0.0-alpha2 by @fontawesome - https://fontawesome.com License - https://fontawesome.com/license (Commercial License) --><defs><style>.fa-secondary{opacity:.4}</style></defs><path d="M32 352H96V160H32V352ZM352 160V352H416V160H352ZM128 448H320V384H128V448ZM128 128H320V64H128V128Z" class="fa-secondary"/><path d="M96 352H32C14.328 352 0 366.326 0 384V448C0 465.674 14.328 480 32 480H96C113.674 480 128 465.674 128 448V384C128 366.326 113.674 352 96 352ZM80 432H48V400H80V432ZM416 352H352C334.328 352 320 366.326 320 384V448C320 465.674 334.328 480 352 480H416C433.674 480 448 465.674 448 448V384C448 366.326 433.674 352 416 352ZM400 432H368V400H400V432ZM416 32H352C334.328 32 320 46.326 320 64V128C320 145.674 334.328 160 352 160H416C433.674 160 448 145.674 448 128V64C448 46.326 433.674 32 416 32ZM400 112H368V80H400V112ZM96 32H32C14.328 32 0 46.326 0 64V128C0 145.674 14.328 160 32 160H96C113.674 160 128 145.674 128 128V64C128 46.326 113.674 32 96 32ZM80 112H48V80H80V112Z" class="fa-primary"/></svg>

<svg xmlns="http://www.w3.org/2000/svg" viewBox="0 0 448 512"><!--! Font Awesome Pro 6.4.0 by @fontawesome - https://fontawesome.com License - https://fontawesome.com/license (Commercial License) Copyright 2023 Fonticons, Inc. --><defs><style>.fa-secondary{opacity:.4}</style></defs><path class="fa-primary" d="M368 80h32v32H368V80zM352 32c-17.7 0-32 14.3-32 32v64c0 17.7 14.3 32 32 32h64c17.7 0 32-14.3 32-32V64c0-17.7-14.3-32-32-32H352zM48 432V400H80v32H48zM0 384v64c0 17.7 14.3 32 32 32H96c17.7 0 32-14.3 32-32V384c0-17.7-14.3-32-32-32H32c-17.7 0-32 14.3-32 32zm368 48V400h32v32H368zm-48-48v64c0 17.7 14.3 32 32 32h64c17.7 0 32-14.3 32-32V384c0-17.7-14.3-32-32-32H352c-17.7 0-32 14.3-32 32zM48 112V80H80v32H48zM0 64v64c0 17.7 14.3 32 32 32H96c17.7 0 32-14.3 32-32V64c0-17.7-14.3-32-32-32H32C14.3 32 0 46.3 0 64z"/><path class="fa-secondary" d="M320 64H128v64H320V64zm0 320H128v64H320V384zM32 160V352H96V160H32zm384 0H352V352h64V160z"/></svg>
